svgs/solid/list-ul.svg

<svg xmlns="http://www.w3.org/2000/svg" viewBox="0 0 512 512"><!-- Font Awesome Pro 6.0.0-alpha2 by @fontawesome - https://fontawesome.com License - https://fontawesome.com/license (Commercial License) --><path d="M48 208C21.49 208 0 229.492 0 256S21.49 304 48 304S96 282.508 96 256S74.51 208 48 208ZM48 368C21.49 368 0 389.492 0 416S21.49 464 48 464S96 442.508 96 416S74.51 368 48 368ZM48 48C21.49 48 0 69.492 0 96S21.49 144 48 144S96 122.508 96 96S74.51 48 48 48ZM192 128H480C497.674 128 512 113.674 512 96S497.674 64 480 64H192C174.326 64 160 78.326 160 96S174.326 128 192 128ZM480 224H192C174.326 224 160 238.326 160 256S174.326 288 192 288H480C497.674 288 512 273.674 512 256S497.674 224 480 224ZM480 384H192C174.326 384 160 398.326 160 416S174.326 448 192 448H480C497.674 448 512 433.674 512 416S497.674 384 480 384Z"/></svg>

<svg xmlns="http://www.w3.org/2000/svg" viewBox="0 0 512 512"><!--! Font Awesome Pro 6.0.0-alpha3 by @fontawesome - https://fontawesome.com License - https://fontawesome.com/license (Commercial License) --><path d="M48 208C21.49 208 0 229.5 0 256s21.49 48 48 48S96 282.5 96 256S74.51 208 48 208zM48 368C21.49 368 0 389.5 0 416s21.49 48 48 48S96 442.5 96 416S74.51 368 48 368zM48 48C21.49 48 0 69.49 0 96s21.49 48 48 48S96 122.5 96 96S74.51 48 48 48zM192 128h288c17.67 0 32-14.33 32-31.1S497.7 64 480 64H192C174.3 64 160 78.33 160 95.1S174.3 128 192 128zM480 224H192C174.3 224 160 238.3 160 256s14.33 32 32 32h288c17.67 0 32-14.33 32-32S497.7 224 480 224zM480 384H192c-17.67 0-32 14.33-32 32s14.33 32 32 32h288c17.67 0 32-14.33 32-32S497.7 384 480 384z"/></svg>
